X:1
T:Title
%%score 1 2 3 4
L:1/8
Q:1/4=82
M:2/2
K:F
V:1 treble transpose=-2 nm="MusicXML Part"
V:2 treble transpose=-7 nm="MusicXML Part"
V:3 treble transpose=-7 nm="MusicXML Part"
V:4 bass nm="MusicXML Part"
V:1
[K:G] B4 B2 B2 | e6 d2 | c2 c2 B4 || d4 d2 c2 | B4 A4 | G2 G2 F4 || B4 B2 B2 | A2 B2 d4 | c4 B4 || %9
w: O Lord, con-|si- der|my dis- tress|And now with|speed some|pi- ty take;|My sins de-|face, my faults|re- dress,|
 e4 d2 B2 | c2 c2 A2 A2 |[M:1/2] G4 ||[M:2/2] G4 F2 F2 | E4 B4 | c2 A2 ^G4 || B4 e2 e2 | d4 B4 | %17
w: Good Lord, for|thy great mer- cies'|sake.|Wash me, O|Lord and|make me clean|From this un-|just and|
 c2 c2 B4 || d4 d2 c2 | B4 A4 | G2 G2 F4 || G4 A2 B2 | E2 G2 F2 F2 | E8 |] %24
w: sin- ful act;|And pu- ri-|fy yet|once a- gain|My hei- nous|cime and blood- y|fact.|
V:2
[K:C] (c2 B2) A2 G2 | F2 E2 c4 | A4 A4 || B4 e2 d2- | d2 c2- cc B2- | B2 A2 ^G4 || A4 A2 A2 | %7
w: O _ Lord, con-|si- der my|dis- tress|And now with|_ speed _ some pi-|* ty take;|My sins de-|
 A3 G/A/ _B4 | (A2 d2) ^c4 || f3 (e d2) c2 | d3 c (B c2) B |[M:1/2] c4 ||[M:2/2] ^G2 A4 G2 | %13
w: face, my _ faults|re- * dress,|Good Lord, _ for|thy great mer- * cies'|sake.|Wash me, O|
 c2 A2 (^G2 A2) | A4 A4 || ^c2 d4 =c2- | c2 B2 c4 | d2 d2 c4 || (c2 d2) ee d2- | d2 c4 B2 | %20
w: Lord and make _|me clean|From this un-|* just and|sin- ful act;|And _ pu- ri- fy|_ yet once|
 A4 ^G4 || A4 B3 c | c(de)A- A^G/(^F/ G2) | A8 |] %24
w: a- gain|My hei- nous|cime and _ blood- * y _ _|fact.|
V:3
[K:C] A4 c2 B2 | A2 (G2 F2) E2- | ED D2 ^C4 || D4 G2 G2 | (A2 E2) ^F4 | ^G2 (AA,) E4 || %6
w: O Lord, con-|si- * der my|_ _ dis- tress|And now with|speed _ some|pi- * ty take;|
 A,4 A,2 A,2 | F2 E4 D2- | D2 A2 A4 || c4 _B2 A2 | A2 A2 G3 F |[M:1/2] E4 ||[M:2/2] E4 E2 E2- | %13
w: My sins de-|face, my faults|_ re- dress,|Good Lord, for|thy great mer- cies'|sake.|Wash me, O|
 ED/C/ D2 B,2 ^C2- | CD/E/ F2 E4 || A4 D4- | D2 D2 A2 G2 | F2 D2 G4 || C4 G,2 D2 | (E2 F2) G3 (D | %20
w: _ _ _ Lord and make|_ _ _ me clean|From this|_ un- just and|sin- ful act;|And pu- ri-|fy _ yet once|
 F2) E2 E4 || E4 G2 G2 | F2 E2 D2 B,2 | ^C8 |] %24
w: _ a- gain|My hei- nous|cime and blood- y|fact.|
V:4
 D,4 D,2 D,2 | D,6 D,2 | D,2 D,2 D,4 || (C,2 B,,2) A,,3 A,, | D,4 G,,4 | A,,3 A,, A,,4 || %6
w: O Lord, con-|si- der|my dis- tress|And _ now with|speed some|pi- ty take;|
 ^F,2 G,4 F,2 | G,G,, ^F,,4 G,,2- | G,,A,,B,,C, D,4 || B,,4 C,2 D,2 | G,,2 B,,2 C,2 C,2 | %11
w: My sins de-|face, my faults re-|* * * * dress,|Good Lord, for|thy great mer- cies'|
[M:1/2] F,,4 ||[M:2/2] A,,4 A,,2 A,,2 | B,,4 A,,2 D,2 | D,4 D,4 || (D,2 C,2) =B,,3 B,, | %16
w: sake.|Wash me, O|Lord and make|me clean|From _ this un-|
 C,4 D,2 F,2- | F,2 E,2 F,4 || (A,2 B,2) C C,3 | C,4 C,4 | D,2 D,2 A,,4 || D,4 C,2 A,,2 | %22
w: just and sin-|* ful act;|And _ pu- ri-|fy yet|once a- gain|My hei- nous|
 B,,2 F,,2 G,,2 A,,2 | D,8 |] %24
w: cime and blood- y|fact.|

